contributed-vectors/packking.svg

<svg xmlns="http://www.w3.org/2000/svg" xml:space="preserve" style="fill-rule:evenodd;clip-rule:evenodd;stroke-linejoin:round;stroke-miterlimit:2" viewBox="0 0 192 192"><circle cx="88" cy="88" r="88" style="fill:#f8c18c" transform="translate(8 8)"/><path d="M81.319 67.836c1.967-6.236 7.802-10.764 14.686-10.764s12.719 4.528 14.687 10.764h17.732a7.05 7.05 0 0 1 7.046 7.046v43.104a7.05 7.05 0 0 1-7.046 7.046H63.587a7.05 7.05 0 0 1-7.047-7.046V74.882a7.05 7.05 0 0 1 7.047-7.046h17.732Zm25.329 0H85.362c1.791-4.103 5.885-6.973 10.643-6.973 4.759 0 8.853 2.87 10.643 6.973Z" style="fill:#fff" transform="matrix(.74554 0 0 .74554 24.424 26.117)"/><path d="M75.746 84.599 86.481 95.48l8.556-10.881 8.557 10.881 10.733-10.881-2.629 24.597H78.375l-2.629-24.597Z" style="fill:#f8c18c" transform="matrix(.74554 0 0 .74554 25.147 26.117)"/></svg>

<?xml version="1.0" encoding="UTF-8" standalone="no"?>
<!DOCTYPE svg PUBLIC "-//W3C//DTD SVG 1.1//EN" "http://www.w3.org/Graphics/SVG/1.1/DTD/svg11.dtd">
<svg width="100%" height="100%" viewBox="0 0 192 192" version="1.1" xmlns="http://www.w3.org/2000/svg" xmlns:xlink="http://www.w3.org/1999/xlink" xml:space="preserve" xmlns:serif="http://www.serif.com/" style="fill-rule:evenodd;clip-rule:evenodd;stroke-linejoin:round;stroke-miterlimit:2;">
    <g transform="matrix(1,0,0,1,8,8)">
        <circle cx="88" cy="88" r="88" style="fill:rgb(248,193,140);"/>
    </g>
    <g transform="matrix(0.745538,0,0,0.745538,24.4244,26.1171)">
        <g id="Layer1">
            <g>
                <path d="M81.319,67.836C83.286,61.6 89.121,57.072 96.005,57.072C102.889,57.072 108.724,61.6 110.692,67.836L128.424,67.836C132.313,67.836 135.47,70.993 135.47,74.882L135.47,117.986C135.47,121.875 132.313,125.032 128.424,125.032L63.587,125.032C59.698,125.032 56.54,121.875 56.54,117.986L56.54,74.882C56.54,70.993 59.698,67.836 63.587,67.836L81.319,67.836ZM106.648,67.836L85.362,67.836C87.153,63.733 91.247,60.863 96.005,60.863C100.764,60.863 104.858,63.733 106.648,67.836Z" style="fill:white;"/>
                <g transform="matrix(1,0,0,1,0.96872,0)">
                    <path d="M75.746,84.599L86.481,95.48L95.037,84.599L103.594,95.48L114.327,84.599L111.698,109.196L78.375,109.196L75.746,84.599Z" style="fill:rgb(248,193,140);"/>
                </g>
            </g>
        </g>
    </g>
</svg>
